X:1
M:3/4
L:1/4
K:Eb
G | B3/2 =A/ B | G2 G | G3/2 ^F/ G | E2 E | F3/2 F/ F | F G A | A G F | G2 G | B3/2 =A/ B | G G G | A3/2 A/ A | c2 c/.- c/ | B3/2 B/ B | G2 E/ F/ | G G3/2 F/ | E2 E3/4 G// | B3/2 =A/ B | G2 G | G3/2 ^F/ G | B2 !sintro!B | e3/2 d/ c | B/ G3/2!fermata! c/ A/ | G G3/2 F/ | E2 !eintro!|]
